X:137 
T:Mister Flynn's Favorite Reel*
F:file ID: cre.5/137mister_f
B:CRE5.126 (gan ainm)
M:4/4
Q:180
R:reel
K:D
E|DFFG ABde|f2df egfe|dBBA BcdB|AFDF EGFE|
DFFG ABde|f2df egfe|dBBA GBdB|AFGE FDD:|
|:e|faab afdf|gedf edBA|fa~a2 bf~f2|afde dBAe|
fa~a2 bf~f2|afde dBBA|B2AF ABde|f2df egf:|
"last time" f2df egfe|d8|]


%%%

